packages/core/src/svgs/tokens/mono/SAITO.svg

<svg width="24" height="24" viewBox="0 0 24 24" fill="none" xmlns="http://www.w3.org/2000/svg">
<path d="M20.7792 6.91432L12.1224 2.02468C12.1012 2.01416 12.0788 2.00668 12.0557 2.00246H12.0446C12.0013 1.99619 11.9571 2.00196 11.9167 2.01912H11.8946L3.24321 6.9032L3.22655 6.91432C3.19224 6.9328 3.1634 6.96 3.14292 6.99316C3.12244 7.02632 3.11104 7.06428 3.10986 7.10323V16.8881C3.11047 16.9264 3.12104 16.964 3.14051 16.9972C3.15999 17.0303 3.18772 17.0578 3.22099 17.077L11.889 21.9665C11.9223 21.9888 11.9612 22 12.0001 22C12.0446 22 12.0835 21.9888 12.1168 21.9665L20.7848 17.077C20.8126 17.0604 20.8366 17.0378 20.8549 17.011C20.873 16.984 20.8852 16.9535 20.8904 16.9214V7.10879C20.8898 7.07037 20.8791 7.03279 20.8597 6.99968C20.8402 6.96656 20.8125 6.93907 20.7792 6.91987V6.91432ZM11.7223 21.3887L3.63772 16.7991L7.77724 9.85924L11.7223 12.1262V21.3887ZM3.6655 7.46995L7.3883 9.63689L3.6655 16.0491V7.46995ZM12.2779 12.1262L16.523 9.69808L20.3347 7.49774V16.7436H12.2779V12.1317V12.1262ZM16.4897 9.20355L13.1669 3.70827L12.6336 2.83591L20.2069 7.10323L16.4897 9.20355ZM11.9167 2.52475L16.0896 9.42582L13.6171 10.8205L12.0001 11.7372L3.80997 7.09212L11.9167 2.52475ZM12.2779 17.2603H19.2734L12.2779 21.3887V17.2603Z" fill="white"/>
</svg>

<svg xmlns="http://www.w3.org/2000/svg" width="24" height="24" fill="none" viewBox="0 0 24 24">
    <path fill="#fff" d="m20.78 6.914-8.658-4.89a.3.3 0 0 0-.066-.022h-.011a.24.24 0 0 0-.128.017h-.022L3.243 6.903l-.016.011a.22.22 0 0 0-.117.19v9.784a.22.22 0 0 0 .111.189l8.668 4.89A.2.2 0 0 0 12 22a.2.2 0 0 0 .117-.034l8.668-4.889a.22.22 0 0 0 .105-.156V7.11a.22.22 0 0 0-.11-.19zM11.721 21.39 3.637 16.8l4.14-6.94 3.944 2.267zM3.666 7.47l3.722 2.167-3.722 6.412zm8.612 4.656 4.245-2.428 3.812-2.2v9.246h-8.057zm4.212-2.922-3.323-5.496-.533-.872 7.573 4.267zm-4.573-6.68 4.173 6.902-2.473 1.394-1.617.917-8.19-4.645zm.36 14.736h6.996l-6.995 4.129z"/>
</svg>
